src/images/characters/Zero_3.svg

<?xml version="1.0" encoding="UTF-8"?><svg id="a" xmlns="http://www.w3.org/2000/svg" viewBox="0 0 150 150"><defs><style>.b{fill:none;stroke-linecap:round;}.b,.c{stroke:#ce7328;}.b,.c,.d{stroke-linejoin:round;}.c{fill:#fcee20;}.d{fill:#c5c6c8;stroke:#909395;}</style></defs><path class="d" d="M95.35,74.95c-.13,0-.21,0-.25,0-1.93-.05-3.46-1.66-3.41-3.59,.05-1.93,1.63-3.5,3.58-3.41,.18,0,10.18,.08,14.76-6.75,3.93-5.86,3.08-15.74-2.46-28.58-.77-1.77,.05-3.83,1.83-4.6,1.77-.76,3.83,.05,4.6,1.83,6.64,15.39,7.25,27.27,1.81,35.31-6.36,9.4-18.5,9.79-20.45,9.79Z"/><path class="d" d="M22.27,101.55c-1.14,0-2.26-.56-2.93-1.58-6.85-10.45-8.34-18.2-4.57-23.71,6.78-9.88,27.88-5.66,30.27-5.15,1.89,.41,3.09,2.27,2.68,4.16-.41,1.89-2.27,3.09-4.16,2.69h0c-6.11-1.31-19.78-2.47-23.03,2.27-1.9,2.78-.25,8.43,4.65,15.91,1.06,1.62,.61,3.79-1.01,4.85-.59,.39-1.26,.57-1.92,.57Z"/><path class="d" d="M90.51,88.37c2.89,7.25,18.3,32.75,29.26,45.49,4.38-2.47,17.2-10.55,17.2-10.55l-17.51,19.71c-12.66-15.27-30.91-42.81-33.44-50.31"/><path class="d" d="M63.11,98.05c1.25,8.22,1.87,16.65-.1,23.67-5.53,6.14-14.27,10.69-18.31,12.91,.74,1.67,2.64,5.59,2.64,5.59l7.38,3.36-9.63,.02-12.29-9.35c5.02-3.03,17.09-7.48,24.16-15.1,1.01-5.06,1.99-13.34-.67-24.77"/><path class="c" d="M92.44,15.56l-8.73-4.87-4.92,8.83c-8.24-9.46-18.22-14.09-27.39-11.48-15.86,4.51-22.41,28.66-14.93,54.99,1.95,6.84,4.63,13.06,7.8,18.44l-7.22,12.96,8.73,4.87,4.92-8.83c8.24,9.46,18.22,14.09,27.39,11.48,15.86-4.51,22.41-28.66,14.93-54.99-1.95-6.84-4.63-13.06-7.8-18.44l7.22-12.96ZM46.08,60.29c-5.02-17.66-2.95-39.51,8.05-42.64,6.37-1.81,13.51,3.31,19.35,11.38l-23.36,41.92c-1.63-3.43-3.01-7.04-4.04-10.66Zm37.32-10.61c5.02,17.66,2.95,39.51-8.05,42.64-6.37,1.81-13.51-3.31-19.35-11.38l23.36-41.92c1.63,3.43,3.01,7.04,4.04,10.66Z"/><path class="b" d="M82.54,70.85s-10.62,10.84-16.6-.01"/><path class="b" d="M70.87,70.96s-2.12-7.2,.44-7.49,3.43,6.6,3.43,6.6"/><path class="b" d="M77.48,69.14s-2.12-7.2,.44-7.49c2.55-.28,3.43,6.6,3.43,6.6"/></svg>

<svg id="Layer_1" data-name="Layer 1" xmlns="http://www.w3.org/2000/svg" viewBox="0 0 150 150"><defs><style>.cls-1{fill:#c5c6c8;stroke:#909395;}.cls-1,.cls-2,.cls-3{stroke-linejoin:round;}.cls-2{fill:#fcee20;}.cls-2,.cls-3{stroke:#ce7328;}.cls-3{fill:none;stroke-linecap:round;}</style></defs><path class="cls-1" d="M95.35,75H95.1a3.5,3.5,0,0,1,.17-7c.18,0,10.17.08,14.76-6.75,3.93-5.86,3.08-15.75-2.46-28.59A3.5,3.5,0,1,1,114,29.84c6.64,15.39,7.25,27.27,1.81,35.31C109.44,74.56,97.3,75,95.35,75Z"/><path class="cls-1" d="M22.27,101.55A3.5,3.5,0,0,1,19.34,100C12.49,89.52,11,81.76,14.77,76.26c6.78-9.88,27.88-5.67,30.27-5.15A3.5,3.5,0,0,1,43.57,78h0c-6.11-1.31-19.78-2.47-23,2.27-1.9,2.78-.25,8.43,4.65,15.91a3.49,3.49,0,0,1-1,4.84A3.45,3.45,0,0,1,22.27,101.55Z"/><path class="cls-1" d="M90.51,88.37c2.9,7.26,18.3,32.75,29.26,45.5,4.38-2.47,17.2-10.56,17.2-10.56L119.46,143C106.8,127.76,88.55,100.21,86,92.71"/><path class="cls-1" d="M63.11,98.05c1.26,8.22,1.88,16.65-.09,23.67-5.54,6.14-14.27,10.69-18.31,12.91.74,1.67,2.64,5.58,2.64,5.58l7.38,3.37H45.1l-12.29-9.35c5-3,17.09-7.47,24.16-15.1a57,57,0,0,0-.67-24.77"/><path class="cls-2" d="M92.44,15.56l-8.73-4.87-4.93,8.83C70.55,10.06,60.57,5.43,51.39,8,35.54,12.54,29,36.7,36.46,63a79.11,79.11,0,0,0,7.8,18.43L37,94.42l8.73,4.87,4.92-8.83c8.24,9.45,18.22,14.09,27.39,11.48C93.94,97.43,100.5,73.28,93,47a78.49,78.49,0,0,0-7.79-18.43ZM46.08,60.29c-5-17.66-2.95-39.51,8.05-42.64C60.5,15.84,67.63,21,73.48,29L50.12,71A69.05,69.05,0,0,1,46.08,60.29ZM83.4,49.68c5,17.66,2.95,39.52-8.05,42.64C69,94.13,61.84,89,56,80.94L79.36,39A69.33,69.33,0,0,1,83.4,49.68Z"/><path class="cls-3" d="M82.54,70.85S71.92,81.69,66,70.84"/><path class="cls-3" d="M70.87,71s-2.12-7.2.43-7.48,3.44,6.6,3.44,6.6"/><path class="cls-3" d="M77.48,69.14s-2.12-7.21.43-7.49,3.44,6.6,3.44,6.6"/></svg>
